X: 1
T: Welly Boot
S: http://lesters-tune-a-day.blogspot.co.uk/2016/03/tune-444-welly-boot.html 2016-3-20
M: 4/4
K: G
L: 1/8
|: "G"DEDE GDGB | "D7"AGFA "G"B2G2 | "D7"cBAc "G"BAGB |1,3 "D7"A2A2 "G"B2G2 :|2,4 "D7"A2F2 "G"G4 :|
|: "G"GABc dBdg |  "C"edce "G"d2B2 | "D7"cBAc "G"BAGB |1,3 "D7"A2A2 "G"B2G2 :|2,4 "D7"A2F2 "G"G4 :|
